assets/img/common/problem-img-1.svg

<svg fill="none" height="168" viewBox="0 0 241 168" width="241" xmlns="http://www.w3.org/2000/svg"><g fill="#ffe3cf"><path clip-rule="evenodd" d="m150.602 138.925 13.206 26.394c1.027.253 1.958.796 2.681 1.564.317.337.589.712.809 1.113h-11.587l-19.227-25.952 1.643-29.362 15.876 4.35z" fill-rule="evenodd"/><path clip-rule="evenodd" d="m205.578 138.925-13.205 26.394c-1.028.253-1.959.796-2.682 1.564-.317.337-.588.712-.808 1.113h11.586l19.227-25.952-1.642-29.362-15.877 4.35z" fill-rule="evenodd"/><path d="m183.579 74.6678c8.194 0 14.837-6.3777 14.837-14.245 0-7.8674-6.643-14.2451-14.837-14.2451s-14.837 6.3777-14.837 14.2451c0 7.8673 6.643 14.245 14.837 14.245z"/></g><path d="m168.877 60.4168s-1.591-2.3061-.979-4.7895c.366-1.41.51-2.8651.428-4.3165.685-2.1514 1.545-4.2471 2.571-6.2677 1.285-2.2469.673-3.193 4.713-3.9026 4.039-.7095 2.387-5.7946 13.037-.2956.359.4846.859.8556 1.436 1.0661.577.2104 1.206.251 1.808.1165 2.203-.4139 2.999 2.5426 2.999 2.5426s1.469-.8279 2.019.3547c.551 1.1826 4.479-.7097 4.479 7.2728s-4.47 15.1129-4.47 15.1129-3.138 9.5672-10.422 8.2073c-7.283-1.36-8.339-.5371-13.342-9.6673-1.024 2.8541-2.597-7.9814-4.277-5.4337z" fill="#000"/><path d="m148.961 92.3029 23.152-12.7209 19.649 1.0456 23.47 13.8508-9.782 60.9096s5.607 6.25-11.339 4.415-44.336-3.324-44.336-3.324-2.203-4.358 2.502-4.97.771-.469.771-.469-2.844-9.102 0-10.877l1.375-18.695z" fill="#3e765e"/><path d="m154.832 93.2872-6.322-.9356-13.393 23.8324 21.761 9.57z" fill="#3e765e"/><path d="m207.797 97.4076 7.696-3.0912 7.654 33.5346-20.772 3.797z" fill="#3e765e"/><path clip-rule="evenodd" d="m150.138 159.987 1.674-6.522 47.63 3.262.978 8.3c.996.237 1.733 1.283 2.252 2.971h-57.664c2.701-6.846 5.13-8.011 5.13-8.011z" fill="#000" fill-rule="evenodd"/><path d="m213.539 32.9365c4.456-.6094 25.546 1.8283 26.438 10.0556.891 8.2274-27.404.8253-25.325-4.3548 1.381-3.4394 19.606.6094 19.012 5.4849-.594 4.8754-17.5 9.4462-16.338 3.9613.839-3.9613 16.412 3.6566 4.456 8.2273" stroke="#000"/><g fill="#3e765e"><path d="m33.0427 80.7126c-3.8328 0-7.6633.0046-11.4961 0-1.2621 0-1.9615-.4448-2.339-1.4789-.088-.2431-.1181-.5205-.1204-.7819-.0116-1.5065-.0301-3.013-.0023-4.5172.0254-1.4927.8661-2.2975 2.3923-2.3388.6924-.0183 1.3872.0229 2.0796-.016.2826-.0161.6021-.1193.8268-.2844 1.0908-.814 2.1491-1.6715 3.233-2.4947 1.6025-1.2176 3.446-1.7633 5.44-1.7771 3.754-.0229 7.5104-.0137 11.2644-.0045.9982.0023 1.8342.3668 2.2279 1.3276.3636.8874.2686 1.761-.4007 2.5085-.4817.5388-1.1208.7039-1.8202.7039-1.8296 0-3.6591-.0046-5.4887.0023-.7063.0023-1.1116.2706-1.2552.7888-.2246.8025.2409 1.5065 1.0792 1.5156 2.8509.0253 5.6994.0184 8.5502 0 .2201 0 .4586-.1673.6531-.3095 2.654-1.9284 5.2988-3.8682 7.9481-5.7989 1.4289-1.041 2.8347-.9952 3.9602.1215s1.1927 2.8731 0 3.9279c-1.114.9882-2.3599 1.832-3.5665 2.7148-2.0889 1.5294-4.1755 3.0611-6.2922 4.5561-1.7068 1.2038-3.6614 1.6372-5.7295 1.6395-3.717.0046-7.434 0-11.151 0z"/><path d="m37.5612 55.6567c-1.202-.1513-2.3483-.1834-3.4345-.4563-4.1755-1.0479-6.8017-3.6825-7.8392-7.8281-.1737-.6948-.2224-1.4286-.2617-2.1485-.0348-.6306.3219-1.0617.9518-1.0709 2.4965-.0389 5.0185-.2201 7.4247.665 4.0296 1.4835 6.5215 4.3199 7.4317 8.4817.1713.7773.2593 1.5844.2732 2.3778.0371 2.192.0325 4.3841.007 6.5762-.0185 1.6922-1.1881 2.6781-2.7605 2.3892-1.0098-.1857-1.7416-.9515-1.7601-1.9719-.0371-2.1348-.0255-4.2695-.0324-6.4043 0-.2224 0-.4471 0-.6122z"/><path d="m41.4633 46.9976c1.6025-1.3941 3.3742-2.3686 5.4168-2.6094 1.9013-.2247 3.8374-.204 5.7573-.2453.6646-.0138 1.0468.4356 1.0305 1.1258-.0625 2.6782-.9634 5.0285-2.8554 6.9752-1.6698 1.7174-3.7054 2.7562-6.07 3.1712-.0532.0092-.1111-.0069-.264-.0161-.1273-3.084-1.0398-5.9227-3.0176-8.4014z"/><path d="m107.602 39.4379c1.258 0 2.517-.0063 3.775.0032.875.0063 1.466.4021 1.383.9625-.107.7124-.685.8929-1.383.8897-1.258-.0063-2.517 0-3.775 0l.031.0317v-1.9188z"/><path d="m107.603 41.2988c.007 1.181.007 2.362.017 3.5431.007.6364-.283 1.143-.995 1.1493-.723.0063-1-.5224-1.01-1.143-.021-1.181-.031-2.3589-.045-3.5399l-.031.0222h2.095z"/><path d="m105.575 39.4329c.013-1.1272.024-2.2544.044-3.3816.014-.8169.415-1.333 1.013-1.3266.606.0063.989.5066.993 1.333 0 1.1271-.011 2.2543-.014 3.3847l.031-.0317c-.698 0-1.397 0-2.095 0l.031.0222z"/><path d="m105.571 41.3036c-1.231-.0032-2.465-.0159-3.696-.0064-.705.0032-1.276-.1773-1.383-.8897-.083-.5636.508-.9562 1.383-.9625 1.231-.0095 2.465-.0095 3.696-.0127l-.031-.0221v1.9187l.031-.0222z"/><path d="m70.6094 64.3074c0-4.9106 0-9.8212.0026-14.7318 0-.5348.0264-1.0722.0527-1.607.0079-.1449.0606-.2871.0922-.432.1449-.6639.3872-1.2856.7902-1.8389.4979-.6849 1.109-1.2355 1.8386-1.6781.6243-.3793 1.2986-.5295 1.9993-.6112.4873-.0579.9799-.0948 1.4698-.0948 6.5353-.0053 13.0731-.0079 19.6084 0 .7955 0 1.5778.1501 2.3259.4241.7349.2661 1.3219.7429 1.8599 1.3041.442.461.793.9747 1.03 1.5622.324.7956.442 1.6333.442 2.4843.005 7.5213.008 15.0426-.002 22.5639 0 .8404-.156 1.665-.638 2.3868-.126.1897-.274.3688-.435.5322-2.4202 2.4395-4.841 4.8763-7.2644 7.3105-.8455.8483-1.6937 1.694-2.5577 2.5264-.5426.5243-1.2011.8641-1.9545.8905-1.3697.0448-2.7447.0395-4.1171.0421-3.074.0053-6.148.0027-9.222 0-.5242 0-1.0326-.0764-1.5436-.2397-.4768-.1528-.9272-.3346-1.3302-.6112-.3609-.2503-.6981-.5479-1.001-.8667-.943-.9958-1.4119-2.2077-1.4224-3.5697-.0237-3.1086-.0185-6.2172-.0237-9.3259 0-2.1391 0-4.2809 0-6.4201zm2.6341.0343v15.6669c0 .6534.1712 1.254.5821 1.7704.3187.4004.7297.677 1.217.8193.561.166 1.1405.166 1.7227.1633 2.9318-.0105 5.8635-.0052 8.7953-.0026.158 0 .3161.0053.4767 0 .2687-.0105.3319-.0764.3451-.3478.0027-.0711.0027-.1422.0027-.2133 0-2.7741.0052-5.5508 0-8.3249 0-.7192.129-1.3988.4267-2.0496.3977-.8693 1.0931-1.4304 1.9308-1.8362.1501-.0737.3134-.129.4768-.1686.727-.1817 1.4698-.1923 2.2152-.1923 2.5367.0027 5.0733.0053 7.61 0 .4741 0 .4768-.1053.4768-.4347 0-6.5571-.0001-13.1142-.0027-19.6713 0-.3978-.029-.7982-.0764-1.1934-.0421-.3635-.0474-.7429-.295-1.059-.1449-.1844-.2397-.4136-.4083-.5691-.216-.1976-.482-.3398-.7296-.4979-.0632-.0395-.1423-.0579-.216-.0737-.5664-.1054-1.138-.1239-1.7122-.1239-6.6511.0053-13.3022.0027-19.9534.0053-.158 0-.3187 0-.4741.0211-.4241.0632-.8377.1212-1.2196.3767-.3135.2108-.5795.4215-.7771.7535-.1396.2371-.2581.4557-.2844.7323-.0238.2424-.1186.4795-.1186.7219-.0079 5.2425-.0052 10.4877-.0052 15.7302zm15.7967 18.3198c.0237.0132.0501.0264.0738.0395.1554-.1159.3266-.2134.4636-.3477.8903-.8799 1.7754-1.7677 2.6604-2.6529 1.3303-1.3357 2.6579-2.6766 3.9907-4.0122.6533-.6534 1.3171-1.2962 1.9651-1.9548.3714-.3767.7296-.7692 1.0799-1.167.1344-.1528.0896-.2529-.1132-.2661-.2819-.0158-.5664-.0027-.8508-.0027-2.5551 0-5.1076 0-7.6627 0-.1791 0-.3608 0-.54.0053-.5584.0132-1.0931.5348-1.0799 1.1065.0105.4926-.0053.9853-.0053 1.4779v6.7968c0 .3267.0105.6507.0184.9774z"/><path d="m79.981 66.5565c-.8415.0307-1.4951-.8776-1.1966-1.6274.054-.133.1492-.2584.2496-.3633.7591-.7702 1.5234-1.5352 2.2903-2.2977 2.3906-2.3796 4.7812-4.7593 7.1719-7.1389 1.1142-1.1079 2.2311-2.2133 3.3453-3.3238.2856-.284.6099-.4401 1.0242-.4477.3448-.0077.5816.1765.7952.3863.3371.3327.4529.7472.2753 1.1975-.0746.1868-.1956.371-.3397.5143-1.0267 1.0389-2.0638 2.0649-3.0983 3.0961-1.6032 1.5941-3.2089 3.183-4.807 4.7771-1.5363 1.5301-3.0674 3.0679-4.6011 4.598-.1467.1459-.3062.2815-.4683.412-.193.1561-.4118.2456-.6408.2175z"/><path d="m77.3406 59.4062c-.4613-.0541-.8303-.2814-1.0827-.6765-.1655-.257-.3256-.5384-.2117-.8523.0814-.2273.1873-.4681.3501-.6386.7082-.7414 1.4355-1.4585 2.1627-2.1837 1.9321-1.9266 3.8615-3.8559 5.799-5.7771.1899-.1867.3989-.3761.6377-.4871.4423-.2056.871-.138 1.2591.184.293.2436.426.571.5454.9119.0108.0298.019.0704.0081.0974-.1085.3193-.1845.644-.4504.9038-.8874.8632-1.753 1.748-2.6295 2.622-1.0746 1.0743-2.1492 2.1458-3.2237 3.2201-.7571.7549-1.5115 1.5099-2.2686 2.2675-.2442.2436-.5319.3924-.8928.4086z"/></g><path d="m127.174 64.7454v-.0031c.011-.4669.017-.9346.017-1.4031v-.0002c.001-1.507-.053-2.9988-.16-4.4754v-.001c-.734-10.4978-4.122-20.6424-9.85-29.4958-.106-.162-.211-.3228-.315-.4811l-.001-.0008c-5.762-8.7605-13.634-15.9558-22.9023-20.93404-9.2687-4.97826-19.6416-7.582191-30.1795-7.575848h-.0002c-35.0223 0-63.40792 28.191988-63.40792 62.964188v.0006c-.017657 11.0404 2.90209 21.8896 8.46391 31.4495l.00028.0005c.36188.6241.73837 1.2441 1.12256 1.8579 3.08467 4.9013 6.83087 9.3593 11.13417 13.2513.6707.606 1.3541 1.198 2.0502 1.775h.0001c6.595 5.476 14.2433 9.563 22.4794 12.011 8.2362 2.447 16.8879 3.205 25.4284 2.226 8.5405-.978 16.7911-3.672 24.2496-7.917 7.4583-4.246 13.9683-9.954 19.1343-16.778l.002-.001c.123-.161.242-.316.356-.473l.003-.004c.056-.076.113-.152.169-.228.039-.052.078-.105.117-.158.238-.324.474-.6531.705-.9822v-.0005c.465-.6587.916-1.3252 1.352-1.9996v-.0003c.439-.6778.865-1.3634 1.277-2.0569.103-.1726.205-.3477.308-.524.203-.3475.403-.7002.601-1.0537.197-.3514.39-.708.578-1.0653l.001-.0008c.19-.3586.377-.718.56-1.0782.093-.1811.183-.3626.271-.5423l.001-.0018c.058-.116.114-.2309.171-.3478.03-.0619.06-.1244.092-.1879.025-.0533.05-.1061.076-.1599.026-.054.052-.109.079-.1646.077-.1609.152-.3246.229-.4918l.001-.0016c.347-.7445.679-1.4977.996-2.2596l.002-.0036c.08-.187.158-.3769.233-.5673l.002-.0035c.155-.3796.307-.7633.454-1.1509l.001-.0014c.074-.1935.142-.3783.219-.5799.072-.1951.143-.3872.211-.5813l.002-.0052c.071-.1919.139-.3868.206-.5804l.001-.0025c.068-.1954.135-.3912.202-.5891.066-.1952.131-.3909.195-.5902v-.0012c.065-.1969.129-.395.191-.5925v-.0019c.055-.1726.11-.3477.165-.5237.193-.6321.376-1.2674.55-1.9059.105-.3938.207-.7884.307-1.1838.253-1.0148.482-2.0383.687-3.0706l.368.073c.041-.2095.081-.4191.12-.631.038-.2095.077-.4191.112-.6286zm0 0c-.005.3034-.014.6075-.026.9128v.0044c-.001.0448-.003.0876-.004.1297-.001.0411-.003.0814-.005.122l-.001.0045c-.007.1688-.014.3353-.021.4994z" stroke="#000" stroke-width=".75"/></svg>

<svg width="241" height="168" viewBox="0 0 241 168" fill="none" xmlns="http://www.w3.org/2000/svg">
  <path fill-rule="evenodd" clip-rule="evenodd"
    d="M150.602 138.925L163.808 165.319C164.835 165.572 165.766 166.115 166.489 166.883C166.806 167.22 167.078 167.595 167.298 167.996H155.711L136.484 142.044L138.127 112.682L154.003 117.032L150.602 138.925Z"
    fill="#FFE3CF" />
  <path fill-rule="evenodd" clip-rule="evenodd"
    d="M205.578 138.925L192.373 165.319C191.345 165.572 190.414 166.115 189.691 166.883C189.374 167.22 189.103 167.595 188.883 167.996H200.469L219.696 142.044L218.054 112.682L202.177 117.032L205.578 138.925Z"
    fill="#FFE3CF" />
  <path
    d="M183.579 74.6678C191.773 74.6678 198.416 68.2901 198.416 60.4228C198.416 52.5554 191.773 46.1777 183.579 46.1777C175.385 46.1777 168.742 52.5554 168.742 60.4228C168.742 68.2901 175.385 74.6678 183.579 74.6678Z"
    fill="#FFE3CF" />
  <path
    d="M168.877 60.4168C168.877 60.4168 167.286 58.1107 167.898 55.6273C168.264 54.2173 168.408 52.7622 168.326 51.3108C169.011 49.1594 169.871 47.0637 170.897 45.0431C172.182 42.7962 171.57 41.8501 175.61 41.1405C179.649 40.431 177.997 35.3459 188.647 40.8449C189.006 41.3295 189.506 41.7005 190.083 41.911C190.66 42.1214 191.289 42.162 191.891 42.0275C194.094 41.6136 194.89 44.5701 194.89 44.5701C194.89 44.5701 196.359 43.7422 196.909 44.9248C197.46 46.1074 201.388 44.2151 201.388 52.1976C201.388 60.1801 196.918 67.3105 196.918 67.3105C196.918 67.3105 193.78 76.8777 186.496 75.5178C179.213 74.1578 178.157 74.9807 173.154 65.8505C172.13 68.7046 170.557 57.8691 168.877 60.4168Z"
    fill="black" />
  <path
    d="M148.961 92.3029L172.113 79.582L191.762 80.6276L215.232 94.4784L205.45 155.388C205.45 155.388 211.057 161.638 194.111 159.803C177.165 157.968 149.775 156.479 149.775 156.479C149.775 156.479 147.572 152.121 152.277 151.509C156.982 150.897 153.048 151.04 153.048 151.04C153.048 151.04 150.204 141.938 153.048 140.163L154.423 121.468L148.961 92.3029Z"
    fill="#3E765E" />
  <path d="M154.832 93.2872L148.51 92.3516L135.117 116.184L156.878 125.754L154.832 93.2872Z" fill="#3E765E" />
  <path d="M207.797 97.4076L215.493 94.3164L223.147 127.851L202.375 131.648L207.797 97.4076Z" fill="#3E765E" />
  <path fill-rule="evenodd" clip-rule="evenodd"
    d="M150.138 159.987L151.812 153.465L199.442 156.727L200.42 165.027C201.416 165.264 202.153 166.31 202.672 167.998H145.008C147.709 161.152 150.138 159.987 150.138 159.987Z"
    fill="black" />
  <path
    d="M213.539 32.9365C217.995 32.3271 239.085 34.7648 239.977 42.9921C240.868 51.2195 212.573 43.8174 214.652 38.6373C216.033 35.1979 234.258 39.2467 233.664 44.1222C233.07 48.9976 216.164 53.5684 217.326 48.0835C218.165 44.1222 233.738 51.7401 221.782 56.3108"
    stroke="black" />
  <path
    d="M33.0427 80.7126C29.2099 80.7126 25.3794 80.7172 21.5466 80.7126C20.2845 80.7126 19.5851 80.2678 19.2076 79.2337C19.1196 78.9906 19.0895 78.7132 19.0872 78.4518C19.0756 76.9453 19.0571 75.4388 19.0849 73.9346C19.1103 72.4419 19.951 71.6371 21.4772 71.5958C22.1696 71.5775 22.8644 71.6187 23.5568 71.5798C23.8394 71.5637 24.1589 71.4605 24.3836 71.2954C25.4744 70.4814 26.5327 69.6239 27.6166 68.8007C29.2191 67.5831 31.0626 67.0374 33.0566 67.0236C36.8106 67.0007 40.567 67.0099 44.321 67.0191C45.3192 67.0214 46.1552 67.3859 46.5489 68.3467C46.9125 69.2341 46.8175 70.1077 46.1482 70.8552C45.6665 71.394 45.0274 71.5591 44.328 71.5591C42.4984 71.5591 40.6689 71.5545 38.8393 71.5614C38.133 71.5637 37.7277 71.832 37.5841 72.3502C37.3595 73.1527 37.825 73.8567 38.6633 73.8658C41.5142 73.8911 44.3627 73.8842 47.2135 73.8658C47.4336 73.8658 47.6721 73.6985 47.8666 73.5563C50.5206 71.6279 53.1654 69.6881 55.8147 67.7574C57.2436 66.7164 58.6494 66.7622 59.7749 67.8789C60.9004 68.9956 60.9676 70.752 59.7749 71.8068C58.6609 72.795 57.415 73.6388 56.2084 74.5216C54.1195 76.051 52.0329 77.5827 49.9162 79.0777C48.2094 80.2815 46.2548 80.7149 44.1867 80.7172C40.4697 80.7218 36.7527 80.7172 33.0357 80.7172L33.0427 80.7126Z"
    fill="#3E765E" />
  <path
    d="M37.5612 55.6567C36.3592 55.5054 35.2129 55.4733 34.1267 55.2004C29.9512 54.1525 27.325 51.5179 26.2875 47.3723C26.1138 46.6775 26.0651 45.9437 26.0258 45.2238C25.991 44.5932 26.3477 44.1621 26.9776 44.1529C29.4741 44.114 31.9961 43.9328 34.4023 44.8179C38.4319 46.3014 40.9238 49.1378 41.834 53.2996C42.0053 54.0769 42.0933 54.884 42.1072 55.6774C42.1443 57.8694 42.1397 60.0615 42.1142 62.2536C42.0957 63.9458 40.9261 64.9317 39.3537 64.6428C38.3439 64.4571 37.6121 63.6913 37.5936 62.6709C37.5565 60.5361 37.5681 58.4014 37.5612 56.2666C37.5612 56.0442 37.5612 55.8195 37.5612 55.6544V55.6567Z"
    fill="#3E765E" />
  <path
    d="M41.4633 46.9976C43.0658 45.6035 44.8375 44.629 46.8801 44.3882C48.7814 44.1635 50.7175 44.1842 52.6374 44.1429C53.302 44.1291 53.6842 44.5785 53.6679 45.2687C53.6054 47.9469 52.7045 50.2972 50.8125 52.2439C49.1427 53.9613 47.1071 55.0001 44.7425 55.4151C44.6893 55.4243 44.6314 55.4082 44.4785 55.399C44.3512 52.315 43.4387 49.4763 41.4609 46.9976H41.4633Z"
    fill="#3E765E" />
  <path
    d="M107.602 39.4379C108.86 39.4379 110.119 39.4316 111.377 39.4411C112.252 39.4474 112.843 39.8432 112.76 40.4036C112.653 41.116 112.075 41.2965 111.377 41.2933C110.119 41.287 108.86 41.2933 107.602 41.2933L107.633 41.325V39.4062L107.602 39.4379Z"
    fill="#3E765E" />
  <path
    d="M107.603 41.2988C107.61 42.4798 107.61 43.6608 107.62 44.8419C107.627 45.4783 107.337 45.9849 106.625 45.9912C105.902 45.9975 105.625 45.4688 105.615 44.8482C105.594 43.6672 105.584 42.4893 105.57 41.3083L105.539 41.3305C106.237 41.3305 106.936 41.3305 107.634 41.3305L107.603 41.2988Z"
    fill="#3E765E" />
  <path
    d="M105.575 39.4329C105.588 38.3057 105.599 37.1785 105.619 36.0513C105.633 35.2344 106.034 34.7183 106.632 34.7247C107.238 34.731 107.621 35.2313 107.625 36.0577C107.625 37.1848 107.614 38.312 107.611 39.4424L107.642 39.4107C106.944 39.4107 106.245 39.4107 105.547 39.4107L105.578 39.4329H105.575Z"
    fill="#3E765E" />
  <path
    d="M105.571 41.3036C104.34 41.3004 103.106 41.2877 101.875 41.2972C101.17 41.3004 100.599 41.1199 100.492 40.4075C100.409 39.8439 101 39.4513 101.875 39.445C103.106 39.4355 104.34 39.4355 105.571 39.4323L105.54 39.4102V41.3289L105.571 41.3067V41.3036Z"
    fill="#3E765E" />
  <path
    d="M70.6094 64.3074C70.6094 59.3968 70.6094 54.4862 70.612 49.5756C70.612 49.0408 70.6384 48.5034 70.6647 47.9686C70.6726 47.8237 70.7253 47.6815 70.7569 47.5366C70.9018 46.8727 71.1441 46.251 71.5471 45.6977C72.045 45.0128 72.6561 44.4622 73.3857 44.0196C74.01 43.6403 74.6843 43.4901 75.385 43.4084C75.8723 43.3505 76.3649 43.3136 76.8548 43.3136C83.3901 43.3083 89.9279 43.3057 96.4632 43.3136C97.2587 43.3136 98.041 43.4637 98.7891 43.7377C99.524 44.0038 100.111 44.4806 100.649 45.0418C101.091 45.5028 101.442 46.0165 101.679 46.604C102.003 47.3996 102.121 48.2373 102.121 49.0883C102.126 56.6096 102.129 64.1309 102.119 71.6522C102.119 72.4926 101.963 73.3172 101.481 74.039C101.355 74.2287 101.207 74.4078 101.046 74.5712C98.6258 77.0107 96.205 79.4475 93.7816 81.8817C92.9361 82.73 92.0879 83.5757 91.2239 84.4081C90.6813 84.9324 90.0228 85.2722 89.2694 85.2986C87.8997 85.3434 86.5247 85.3381 85.1523 85.3407C82.0783 85.346 79.0043 85.3434 75.9303 85.3407C75.4061 85.3407 74.8977 85.2643 74.3867 85.101C73.9099 84.9482 73.4595 84.7664 73.0565 84.4898C72.6956 84.2395 72.3584 83.9419 72.0555 83.6231C71.1125 82.6273 70.6436 81.4154 70.6331 80.0534C70.6094 76.9448 70.6146 73.8362 70.6094 70.7275C70.6094 68.5884 70.6094 66.4466 70.6094 64.3074ZM73.2435 64.3417C73.2435 69.5631 73.2435 74.7846 73.2435 80.0086C73.2435 80.662 73.4147 81.2626 73.8256 81.779C74.1443 82.1794 74.5553 82.456 75.0426 82.5983C75.6036 82.7643 76.1831 82.7643 76.7653 82.7616C79.6971 82.7511 82.6288 82.7564 85.5606 82.759C85.7186 82.759 85.8767 82.7643 86.0373 82.759C86.306 82.7485 86.3692 82.6826 86.3824 82.4112C86.3851 82.3401 86.3851 82.269 86.3851 82.1979C86.3851 79.4238 86.3903 76.6471 86.3851 73.873C86.3851 73.1538 86.5141 72.4742 86.8118 71.8234C87.2095 70.9541 87.9049 70.393 88.7426 69.9872C88.8927 69.9135 89.056 69.8582 89.2194 69.8186C89.9464 69.6369 90.6892 69.6263 91.4346 69.6263C93.9713 69.629 96.5079 69.6316 99.0446 69.6263C99.5187 69.6263 99.5214 69.521 99.5214 69.1916C99.5214 62.6345 99.5213 56.0774 99.5187 49.5203C99.5187 49.1225 99.4897 48.7221 99.4423 48.3269C99.4002 47.9634 99.3949 47.584 99.1473 47.2679C99.0024 47.0835 98.9076 46.8543 98.739 46.6988C98.523 46.5012 98.257 46.359 98.0094 46.2009C97.9462 46.1614 97.8671 46.143 97.7934 46.1272C97.227 46.0218 96.6554 46.0033 96.0812 46.0033C89.4301 46.0086 82.779 46.006 76.1278 46.0086C75.9698 46.0086 75.8091 46.0086 75.6537 46.0297C75.2296 46.0929 74.816 46.1509 74.4341 46.4064C74.1206 46.6172 73.8546 46.8279 73.657 47.1599C73.5174 47.397 73.3989 47.6156 73.3726 47.8922C73.3488 48.1346 73.254 48.3717 73.254 48.6141C73.2461 53.8566 73.2488 59.1018 73.2488 64.3443L73.2435 64.3417ZM89.0402 82.6615C89.0639 82.6747 89.0903 82.6879 89.114 82.701C89.2694 82.5851 89.4406 82.4876 89.5776 82.3533C90.4679 81.4734 91.353 80.5856 92.238 79.7004C93.5683 78.3647 94.8959 77.0238 96.2287 75.6882C96.882 75.0348 97.5458 74.392 98.1938 73.7334C98.5652 73.3567 98.9234 72.9642 99.2737 72.5664C99.4081 72.4136 99.3633 72.3135 99.1605 72.3003C98.8786 72.2845 98.5941 72.2976 98.3097 72.2976C95.7546 72.2976 93.2021 72.2976 90.647 72.2976C90.4679 72.2976 90.2862 72.2976 90.107 72.3029C89.5486 72.3161 89.0139 72.8377 89.0271 73.4094C89.0376 73.902 89.0218 74.3947 89.0218 74.8873C89.0218 77.1529 89.0218 79.4185 89.0218 81.6841C89.0218 82.0108 89.0323 82.3348 89.0402 82.6615Z"
    fill="#3E765E" />
  <path
    d="M79.981 66.5565C79.1395 66.5872 78.4859 65.6789 78.7844 64.9291C78.8384 64.7961 78.9336 64.6707 79.034 64.5658C79.7931 63.7956 80.5574 63.0306 81.3243 62.2681C83.7149 59.8885 86.1055 57.5088 88.4962 55.1292C89.6104 54.0213 90.7273 52.9159 91.8415 51.8054C92.1271 51.5214 92.4514 51.3653 92.8657 51.3577C93.2105 51.35 93.4473 51.5342 93.6609 51.744C93.998 52.0767 94.1138 52.4912 93.9362 52.9415C93.8616 53.1283 93.7406 53.3125 93.5965 53.4558C92.5698 54.4947 91.5327 55.5207 90.4982 56.5519C88.895 58.146 87.2893 59.7349 85.6912 61.329C84.1549 62.8591 82.6238 64.3969 81.0901 65.927C80.9434 66.0729 80.7839 66.2085 80.6218 66.339C80.4288 66.4951 80.21 66.5846 79.981 66.5565Z"
    fill="#3E765E" />
  <path
    d="M77.3406 59.4062C76.8793 59.3521 76.5103 59.1248 76.2579 58.7297C76.0924 58.4727 75.9323 58.1913 76.0462 57.8774C76.1276 57.6501 76.2335 57.4093 76.3963 57.2388C77.1045 56.4974 77.8318 55.7803 78.559 55.0551C80.4911 53.1285 82.4205 51.1992 84.358 49.278C84.5479 49.0913 84.7569 48.9019 84.9957 48.7909C85.438 48.5853 85.8667 48.6529 86.2548 48.9749C86.5478 49.2185 86.6808 49.5459 86.8002 49.8868C86.811 49.9166 86.8192 49.9572 86.8083 49.9842C86.6998 50.3035 86.6238 50.6282 86.3579 50.888C85.4705 51.7512 84.6049 52.636 83.7284 53.51C82.6538 54.5843 81.5792 55.6558 80.5047 56.7301C79.7476 57.485 78.9932 58.24 78.2361 58.9976C77.9919 59.2412 77.7042 59.39 77.3433 59.4062H77.3406Z"
    fill="#3E765E" />
  <path
    d="M127.174 64.7454L127.174 64.7423C127.185 64.2754 127.191 63.8077 127.191 63.3392V63.339C127.192 61.832 127.138 60.3402 127.031 58.8636L127.031 58.8626C126.297 48.3648 122.909 38.2202 117.181 29.3668C117.075 29.2048 116.97 29.044 116.866 28.8857L116.865 28.8849C111.103 20.1244 103.231 12.9291 93.9627 7.95086C84.694 2.9726 74.3211 0.368669 63.7832 0.375012L63.783 0.375012C28.7607 0.375012 0.37508 28.567 0.37508 63.3392V63.3398C0.357423 74.3802 3.27717 85.2294 8.83899 94.7893L8.83927 94.7898C9.20115 95.4139 9.57764 96.0339 9.96183 96.6477C13.0465 101.549 16.7927 106.007 21.096 109.899C21.7667 110.505 22.4501 111.097 23.1462 111.674L23.1463 111.674C29.7413 117.15 37.3896 121.237 45.6257 123.685C53.8619 126.132 62.5136 126.89 71.0541 125.911C79.5946 124.933 87.8452 122.239 95.3037 117.994C102.762 113.748 109.272 108.04 114.438 101.216L114.44 101.215C114.563 101.054 114.682 100.899 114.796 100.742L114.799 100.738C114.855 100.662 114.912 100.586 114.968 100.51C115.007 100.458 115.046 100.405 115.085 100.352L115.085 100.352C115.323 100.028 115.559 99.6989 115.79 99.3698L115.79 99.3693C116.255 98.7106 116.706 98.0441 117.142 97.3697L117.142 97.3694C117.581 96.6916 118.007 96.006 118.419 95.3125C118.522 95.1399 118.624 94.9648 118.727 94.7885C118.93 94.441 119.13 94.0883 119.328 93.7348C119.525 93.3834 119.718 93.0268 119.906 92.6695L119.907 92.6687C120.097 92.3101 120.284 91.9507 120.467 91.5905C120.56 91.4094 120.65 91.2279 120.738 91.0482L120.739 91.0464C120.797 90.9304 120.853 90.8155 120.91 90.6986C120.94 90.6367 120.97 90.5742 121.002 90.5107C121.027 90.4574 121.052 90.4046 121.078 90.3508C121.104 90.2968 121.13 90.2418 121.157 90.1862C121.234 90.0253 121.309 89.8616 121.386 89.6944L121.387 89.6928C121.734 88.9483 122.066 88.1951 122.383 87.4332L122.385 87.4296C122.465 87.2426 122.543 87.0527 122.618 86.8623L122.62 86.8588C122.775 86.4792 122.927 86.0955 123.074 85.7079L123.075 85.7065C123.149 85.513 123.217 85.3282 123.294 85.1266C123.366 84.9315 123.437 84.7394 123.505 84.5453L123.507 84.5401C123.578 84.3482 123.646 84.1533 123.713 83.9597L123.714 83.9572C123.782 83.7618 123.849 83.566 123.916 83.3681C123.982 83.1729 124.047 82.9772 124.111 82.7779L124.111 82.7767C124.176 82.5798 124.24 82.3817 124.302 82.1842L124.302 82.1823C124.357 82.0097 124.412 81.8346 124.467 81.6586C124.66 81.0265 124.843 80.3912 125.017 79.7527C125.122 79.3589 125.224 78.9643 125.324 78.5689C125.577 77.5541 125.806 76.5306 126.011 75.4983C126.011 75.4983 126.011 75.4983 126.011 75.4983L126.379 75.5713C126.42 75.3618 126.46 75.1522 126.499 74.9403C126.537 74.7308 126.576 74.5212 126.611 74.3117L127.174 64.7454ZM127.174 64.7454C127.169 65.0488 127.16 65.3529 127.148 65.6582L127.148 65.6626C127.147 65.7074 127.145 65.7502 127.144 65.7923C127.143 65.8334 127.141 65.8737 127.139 65.9143L127.138 65.9188C127.131 66.0876 127.124 66.2541 127.117 66.4182L127.174 64.7454Z"
    stroke="black" stroke-width="0.75" />
</svg>
